!!!!SEGMENT: pl-sa--481-a-viii-121--013_anonim--keyboard-piece.krn
!!!cenid: 18xx:384
!!!COM: Anonim
!!!COM-rismID:
!!!CDT:
!!!CNT:
!!!OTL: Keyboard piece
!!!PDT:
!!!AGN: Secular
!!!SMS-siglum: PL-SA
!!!SMS-shelfmark: 481/A VIII 121
!!!SMS-shelfwork: 013 W
!!!SMS-variant:
!!!SMS-altvar:
!!!NIFC-rismSourceID: 1001070484
!!!NIFC-islandoraID:
!!!URL-pdf-islandora:
!!!URL-scan: https://bc.bdsandomierz.pl/dlibra/publication/1212/edition/1171/content @EN{Scan on Cyfrowa Biblioteka Diecezjalna w Sandomierzu} @PL{Skany w portalu Cyfrowa Biblioteka Diecezjalna w Sandomierzu}
!!!ONB-nifc: Str. 8 (s. 5) – str. 5 (s. 1). Uwaga: kontynuacja na stronie 5.
!!!AIN: 1 piano
!!!key:
**kern	**kern
*part1	*part1
*staff2	*staff1
*Ipiano	*Iempty
*I"Piano	*
*I'P-no	*
*clefF4	*clefG2
*k[f#c#]	*k[f#c#]
*D:	*D:
*M2/4	*M2/4
!	!LO:TX:a:t=P:problem= metrum w obu głosach zapisane z kreską ułamkową
8r	8a\
*clefG2	*
=1	=1
*tremolo	*
8aL 8f# 8d/	8dd\L
8a 8f# 8d/	16dd\L
.	16ee\JJ
8a 8f# 8d/	8ff#\L
8aJ 8f# 8d/	8dd\J
=2	=2
2a 2g 2c#/	8ee\L
.	16ee\L
.	16ff#\JJ
.	8gg\L
.	8ee\J
=3	=3
8aL 8f# 8d/	8dd\L
8a 8f# 8d/	16dd\L
.	16ee\JJ
8a 8f# 8d/	8ff#\L
8aJ 8f# 8d/	8dd\J
=4	=4
.	8qdd/
8gL 8e 8A/	8cc#\L
8g 8e 8A/	8b\
8g 8e 8A/	8cc#\
8gJ 8e 8A/	8a\J
=5	=5
8aL 8f# 8d/	8dd\L
8a 8f# 8d/	16dd\L
.	16ee\JJ
8a 8f# 8d/	8ff#\L
8aJ 8f# 8d/	8dd\J
=6	=6
8aL 8g 8c#/	8ee\L
8a 8g 8c#/	16ee\L
.	16ff#\JJ
8a 8g 8c#/	8gg\L
8aJ 8g 8c#/	8ee\J
*Xtremolo	*
=7	=7
8c#/L	8ff#\L
8f#/	8dd\
8a/	8ee\
8A/J	8cc#\J
=	=
8f#L 8d/	8dd\L
8a 8f# 8d/	8ff#\
8aJ 8f# 8d/	8dd\J
==8!|	==8!|
8r	8r
*clefF4	*
=9	=9
16C#\LL	8ee\L
16A\	.
16E\	16ee\L
16A\JJ	16ff#\JJ
*rep	*
16C#\LL	8gg\L
16A\	.
16E\	8ee\J
16A\JJ	.
*Xrep	*
=10	=10
16D\LL	8ff#\L
16A\	.
16F#\	8aa\
16A\JJ	.
*rep	*
16D\LL	8ff#\
16A\	.
16F#\	8dd\J
16A\JJ	.
*Xrep	*
!!LO:PB:g=original
=11	=11
.	8qdd/
16AA\LL	8cc#\L
16A\	.
16E\	8b\
16A\JJ	.
*rep	*
16AA\LL	8cc#\
16A\	.
16E\	8a\J
16A\JJ	.
*Xrep	*
=12	=12
16D\LL	8dd\L
16A\	.
16F#\	16dd\L
16A\JJ	16ff#\JJ
16C#\LL	4ee\
16A\	.
16E\	.
16A\JJ	.
=13	=13
*rep	*
16C#\LL	8ee\L
16A\	.
16E\	16ee\L
16A\JJ	16ff#\JJ
*Xrep	*
*rep	*
16C#\LL	8gg\L
16A\	.
16E\	8ee\J
16A\JJ	.
*Xrep	*
=14	=14
16D\LL	8ff#\L
16A\	.
16F#\	8aa\
16A\JJ	.
*rep	*
16D\LL	8ff#\
16A\	.
16F#\	8dd\J
16A\JJ	.
*Xrep	*
=15	=15
.	8qdd/
16AA\LL	8cc#\L
16A\	.
16E\	8b\
16A\JJ	.
!LO:TX:a:t=P:problem=brak znaku powtórzenia	!
4ryy	8cc#\
.	8a\J
=16	=16
8F#L 8D\	8dd\L
8AJ 8F#\	8ff#\J
4F# 4D\	4dd\
=17	=17
16C#\LL	8ee\L
16A\	.
16E\	16ee\L
16A\JJ	16ff#\JJ
*rep	*
16C#\LL	8gg\L
16A\	.
16E\	8ee\J
16A\JJ	.
*Xrep	*
=18	=18
16D\LL	8ff#\L
16A\	.
16F#\	8aa\
16A\JJ	.
!LO:TX:a:t=P:problem= brak znaku powtórzenia	!
4ryy	8ff#\
.	8dd\J
=19	=19
.	8qdd/
16C#\LL	8cc#\L
16A\	.
16E\	8b\
16A\JJ	.
*rep	*
16C#\LL	8cc#\
16A\	.
16E\	8a\J
16A\JJ	.
*Xrep	*
=20	=20
16D\LL	8dd\L
16A\	.
16F#\	16dd\L
16A\JJ	16ff#\JJ
16C#\LL	4ee\
16A\	.
16E\	.
16A\JJ	.
=21	=21
*rep	*
16C#\LL	8ee\L
16A\	.
16E\	16ee\L
16A\JJ	16ff#\JJ
*Xrep	*
*rep	*
16C#\LL	8gg\L
16A\	.
16E\	8ee\J
16A\JJ	.
*Xrep	*
=22	=22
16D\LL	8ff#\L
16A\	.
16F#\	8aa\
16A\JJ	.
*rep	*
16D\LL	8ff#\
16A\	.
16F#\	8dd\J
16A\JJ	.
*Xrep	*
=23	=23
.	8qdd/
16AA\LL	8cc#\L
16A\	.
16E\	8b\
16A\JJ	.
*rep	*
16AA\LL	8cc#\
16A\	.
16E\	8a\J
16A\JJ	.
*Xrep	*
=24	=24
8F#L 8D\	8dd\L
8AJ 8F#\	8ff#\J
4F# 4D\	4dd\
!	!LO:TX:b:t=D&colon;C&colon;
!LO:TX:a:t=P:problem=nad i pod kreską znak przypominający segno	!LO:TX:a:t=P:problem=nad i pod kreską znak przypominający segno
==	==
*-	*-
!!!system-decoration: {(s1,s2)}
!!!RDF**kern: > = above
!!!RDF**kern: < = below
!!!EED: Mateusz Mrugas
!!!EEV: 2020-11-23
!!!ENC: Marcin Jachim
!!!END: 2020-06-14
